X: 5
T: Rathlin Island
R: reel
M: 4/4
L: 1/8
K: Ador
|:e2 dB eAAB|e2 dB AGBd|e2 dB eAAB|(3efg dB BA A2|
eAdB eAAB|e2 dB AGBd|e2 dB eAAB|egdB BAAG||
|:A3B EGBG|AGAB deed|A2 AB EGBd|(3efg dB BAAG|
A3B EGBG|ADAB deed|A2 AB EGBd|egdB BA A2||


Tune 874	Setting 14051

